X: 1238
T: The Flower of the Flock
M:C|
L:1/8
R:Reel
B:O'Neill's 1238
N:Collected by F. O'Neill
Z:Transcribed by Trish O'Neil
K:G
(GE) | DEGA BGGB | cABG AGEG | DEGA BABc | dBABG2 :|
(3def | g2(ge)d2(dB) | AcBG AGEG | g2ged2~d2 | eaab agef |
gfge dedB | cABG AGEG | DEGA BABc | dBABG2 |]


